production/assets/icons/relogio.svg

<svg xmlns="http://www.w3.org/2000/svg" width="16" height="16" viewBox="0 0 16 16"><path fill="#010101" d="M1.7.6C.3 1.7 0 3.7 1 5.1l5.1-3.8c-1-1.4-3-1.7-4.4-.7zm12.6 0c-1.4-1.1-3.4-.8-4.5.6L15 5.1c1-1.4.7-3.4-.7-4.5zM8 2.2C4.5 2.2 1.7 5 1.7 8.5c0 1.7.7 3.2 1.8 4.4l-.7 2.5c-.1.2 0 .4.2.5l.2.1c.2.1.4 0 .5-.2L4.9 14c.9.5 2 .8 3.1.8s2.2-.3 3.1-.8l1.1 1.8c.1.2.3.2.5.2l.2-.1c.2-.1.3-.3.2-.5l-.7-2.5c1.1-1.1 1.8-2.7 1.8-4.4.1-3.4-2.7-6.3-6.2-6.3zm0 11.3c-2.7 0-5-2.2-5-5s2.2-5 5-5c2.7 0 5 2.2 5 5s-2.3 5-5 5zm.9-4.9c0-.4-.3-.8-.7-.8v-3h-.4v3c-.4 0-.7.3-.7.8 0 .4.4.8.9.8.3 0 .5-.1.6-.3l2.3.7.1-.5-2.1-.7z"/></svg>

<?xml version="1.0" encoding="utf-8"?>
<!-- Generator: Adobe Illustrator 16.0.0, SVG Export Plug-In . SVG Version: 6.00 Build 0)  -->
<!DOCTYPE svg PUBLIC "-//W3C//DTD SVG 1.1//EN" "http://www.w3.org/Graphics/SVG/1.1/DTD/svg11.dtd">
<svg version="1.1" id="Layer_1" xmlns="http://www.w3.org/2000/svg" xmlns:xlink="http://www.w3.org/1999/xlink" x="0px" y="0px"
	 width="16px" height="16px" viewBox="0 0 16 16" enable-background="new 0 0 16 16" xml:space="preserve">
<g>
	<g>
		<path fill="#010101" d="M1.7,0.6C0.3,1.7,0,3.7,1,5.1l5.1-3.8C5.1-0.1,3.1-0.4,1.7,0.6z M14.3,0.6c-1.4-1.1-3.4-0.8-4.5,0.6
			L15,5.1C16,3.7,15.7,1.7,14.3,0.6z M8,2.2c-3.5,0-6.3,2.8-6.3,6.3c0,1.7,0.7,3.2,1.8,4.4l-0.7,2.5c-0.1,0.2,0,0.4,0.2,0.5L3.2,16
			c0.2,0.1,0.4,0,0.5-0.2L4.9,14c0.9,0.5,2,0.8,3.1,0.8c1.1,0,2.2-0.3,3.1-0.8l1.1,1.8c0.1,0.2,0.3,0.2,0.5,0.2l0.2-0.1
			c0.2-0.1,0.3-0.3,0.2-0.5l-0.7-2.5c1.1-1.1,1.8-2.7,1.8-4.4C14.3,5.1,11.5,2.2,8,2.2z M8,13.5c-2.7,0-5-2.2-5-5s2.2-5,5-5
			c2.7,0,5,2.2,5,5S10.7,13.5,8,13.5z M8.9,8.6c0-0.4-0.3-0.8-0.7-0.8v-3H7.8v3C7.4,7.8,7.1,8.1,7.1,8.6C7.1,9,7.5,9.4,8,9.4
			c0.3,0,0.5-0.1,0.6-0.3l2.3,0.7l0.1-0.5L8.9,8.6C8.9,8.6,8.9,8.6,8.9,8.6z"/>
	</g>
</g>
</svg>
